X: 2
T: The Grumbling Old Man And Woman
R: reel
M: 4/4
L: 1/8
K: Amix
A,2 CA, EA,CA,|G,2, B,G, DG, B,G,|A,2 CA, EA, CA,|1 B,A,G,B, A,2A,B,:|2 B,A,G,B, A,2z2||efed cdef|gedc BG Gz |efed cdef|ea{b}a^g a2ef|=gfed cdef|gedc BGAB|(3=cBA BG AGEF|GFED B,A, A,2||


Tune 1006	Setting 27988

